!!!OTL: VERNEHMET IHR FREUNDE WAS WIR EUCH F[ERK2LAERN
!!!ARE: Europa, Mitteleuropa, Deutschland, Franken
!!!SCT: E0867A
!!!YEM: Copyright 1995, estate of Helmut Schaffrath.
**kern
*ICvox
*Ivox
*M6/8
*k[b-]
*F:
{8cc
=1
8cc
8a
8cc
8cc
8a
8ff
=2
8dd
8dd
8dd
4dd}
{8ff
=3
8.cc
16dd
8cc
8cc
8b-
8a
=4
4.a
4g}
{8cc
=5
8cc
8a
8cc
8cc
8a
8ff
=6
8dd
8dd
8dd
4dd}
{8ff
=7
8.cc
16dd
8cc
8cc
8b-
8a
=8
4.a
4g}
{8cc
=9
4b-
8g
4g
8g
=10
4f
8a
4cc}
{8cc
=11
4b-
8g
4g
8g
=12
4f
8a
4cc}
{8cc
=13
8.cc
16a
8cc
8cc
8a
8cc
=14
4.ff}
{4.dd
=15
8.cc
16dd
8cc
8cc
8b-
8g
=16
4.f
4r}
==
!!!AGN: Hochzeits -, Ehestands - Lied
!!!ONB: ESAC (Essen Associative Code) Database: ERK2
!!!AMT: compound duple
!!!AIN: vox
!!!EED: Helmut Schaffrath
!!!EEV: 1.0
*-
